public/brands/laravel.svg

<?xml version="1.0" encoding="UTF-8"?>
<svg width="299px" height="274px" viewBox="0 0 299 274" version="1.1" xmlns="http://www.w3.org/2000/svg" xmlns:xlink="http://www.w3.org/1999/xlink">
    <!-- Generator: Sketch 40.3 (33839) - http://www.bohemiancoding.com/sketch -->
    <title>Group</title>
    <desc>Created with Sketch.</desc>
    <defs></defs>
    <g id="Page-1" stroke="none" stroke-width="1" fill="none" fill-rule="evenodd">
        <g id="Group">
            <path d="M175.649435,169.301514 C177.228166,171.652743 178.19277,171.472046 179.420496,170.929413 C180.648222,170.38678 243.797963,148.410141 245.727172,147.686811 C247.656381,146.963481 247.042781,146.330228 246.42918,145.335039 C245.815581,144.339851 224.765316,114.857511 223.712829,113.138992 C222.660342,111.420474 222.134099,111.782409 220.467486,112.325043 L153.525108,130.286197 C153.525108,130.286197 174.070705,166.950284 175.649435,169.301514 L175.649435,169.301514 L175.649435,169.301514 Z" id="Shape" fill="#F35045"></path>
            <path d="M251.077489,139.279254 L251.077489,104.768878 C243.545893,106.83848 234.02036,109.453971 230.259824,110.485517 C235.932729,118.312456 244.802036,130.561312 251.077489,139.279254 L251.077489,139.279254 L251.077489,139.279254 Z" id="Shape" fill="#F35045"></path>
            <path d="M230.195096,67.9821546 C229.163133,68.2236263 206.318904,72.4805826 204.911729,72.67376 C203.504554,72.8669374 203.973437,73.6895691 204.536518,74.5116581 L224.639544,102.953227 C224.639544,102.953227 249.219324,96.6651956 250.720696,96.3265926 C250.842258,96.2989183 250.96119,96.2696161 251.077489,96.239771 L251.077489,92.4738973 C246.609682,86.6319101 234.437144,70.7267926 233.385184,69.2405206 C232.119043,67.4503742 231.22706,67.7406829 230.195096,67.9821546 L230.195096,67.9821546 L230.195096,67.9821546 Z" id="Shape" fill="#F35045"></path>
            <path d="M86.4601146,23.3066324 C91.4068031,23.0749281 91.85832,24.2356202 94.0317055,27.558705 L148.632622,121.685463 L217.286344,104.726552 C213.482656,99.1667337 196.213977,73.9218161 194.545259,71.5130679 C192.669201,68.8042437 194.592095,67.5464203 197.64115,67.0146399 C200.690204,66.4828594 226.958173,61.9361371 229.209968,61.597534 C231.461764,61.258931 233.244677,60.4368419 236.903121,64.9835643 C238.77497,67.3098322 245.121992,75.4590955 251.077489,83.097741 L251.077489,39.0695801 C251.077489,28.3075387 247.371683,19.1050247 239.960596,11.4631233 C232.549509,3.82122199 223.624947,0 213.18796,0 L86.8895292,0 C76.4525427,0 67.5279798,3.82122199 60.1168931,11.4631233 C55.8658984,15.8465132 52.8405248,20.7454044 51.0276161,26.155456 C63.4032836,25.1070889 82.9979588,23.4688797 86.4601146,23.3066324 L86.4601146,23.3066324 L86.4601146,23.3066324 Z" id="Shape" fill="#F35045"></path>
            <path d="M181.841216,181.969825 C176.052012,183.778421 173.456052,184.675936 169.684992,179.249605 C166.860643,175.185284 151.587479,146.819141 144.098509,132.835487 C129.92572,136.66322 103.987706,143.643652 96.5082072,145.496744 C89.2076317,147.30534 86.0901654,142.792261 84.8908566,140.010181 C84.0499195,138.059416 62.6475979,90.478093 49,59.9479296 L49,169.301514 C49,180.064098 52.7058065,189.265526 60.1168931,196.907971 C67.5279798,204.549871 76.4525427,208.371094 86.8895292,208.371094 L213.18796,208.371094 C223.624947,208.371094 232.549509,204.549871 239.960596,196.907971 C247.371683,189.265526 251.077489,180.064098 251.077489,169.301514 L251.077489,156.456304 C235.57383,162.303718 185.741732,180.751071 181.841216,181.969825 L181.841216,181.969825 L181.841216,181.969825 Z" id="Shape" fill="#F35045"></path>
            <path d="M96.68713,134.536099 C98.7389532,134.05207 137.191563,124.562504 138.012503,124.381264 C138.833443,124.200024 139.360739,123.715996 138.481386,122.145073 C137.602033,120.574151 87.2252725,30.9100068 87.2252725,30.9100068 C86.7600733,30.0868325 86.8926867,29.8128027 85.6291761,29.8811745 C84.5024889,29.9424921 55.9979855,32.5650377 49.3983663,33.133717 C49.2036562,34.5489041 49.0863039,35.9966491 49.0347321,37.472611 C55.7343376,51.6147137 94.1853686,133.385717 94.4011284,134.05207 C94.635833,134.777571 94.6353068,135.019585 96.68713,134.536099 L96.68713,134.536099 L96.68713,134.536099 Z" id="Shape" fill="#F35045"></path>
            <path d="M11.32125,271.055 C10.6912468,270.424997 10.37625,269.660005 10.37625,268.76 L10.37625,210.35 L2.00625,210.35 C1.6462482,210.35 1.3462512,210.230001 1.10625,209.99 C0.8662488,209.749999 0.74625,209.450002 0.74625,209.09 L0.74625,204.95 C0.74625,204.589998 0.8662488,204.290001 1.10625,204.05 C1.3462512,203.809999 1.6462482,203.69 2.00625,203.69 L14.15625,203.69 C15.0562545,203.69 15.8212468,204.004997 16.45125,204.635 C17.0812531,205.265003 17.39625,206.029995 17.39625,206.93 L17.39625,265.34 L26.93625,265.34 C27.2962518,265.34 27.5962488,265.459999 27.83625,265.7 C28.0762512,265.940001 28.19625,266.239998 28.19625,266.6 L28.19625,270.74 C28.19625,271.100002 28.0762512,271.399999 27.83625,271.64 C27.5962488,271.880001 27.2962518,272 26.93625,272 L13.61625,272 C12.7162455,272 11.9512531,271.685003 11.32125,271.055 L11.32125,271.055 Z M40.76875,269.255 C37.8287353,266.644987 36.35875,263.210021 36.35875,258.95 C36.35875,254.98998 37.6937366,251.720013 40.36375,249.14 C43.0337633,246.559987 46.768726,244.940003 51.56875,244.28 L63.26875,242.66 C65.0087587,242.419999 66.2687461,241.835005 67.04875,240.905 C67.8287539,239.974995 68.21875,238.640009 68.21875,236.9 L68.21875,236.18 C68.21875,233.299986 67.0937612,230.975009 64.84375,229.205 C62.5937387,227.434991 59.7887668,226.55 56.42875,226.55 C53.7887368,226.55 51.4937597,227.074995 49.54375,228.125 C47.5937402,229.175005 46.0487557,230.629991 44.90875,232.49 C44.4287476,233.270004 43.8287536,233.66 43.10875,233.66 C42.7487482,233.66 42.3587521,233.510001 41.93875,233.21 L39.50875,231.59 C38.9687473,231.109998 38.69875,230.600003 38.69875,230.06 C38.69875,229.819999 38.7887491,229.520002 38.96875,229.16 C40.7087587,226.279986 43.0937348,224.015008 46.12375,222.365 C49.1537651,220.714992 52.6487302,219.89 56.60875,219.89 C60.208768,219.89 63.4187359,220.564993 66.23875,221.915 C69.0587641,223.265007 71.2337423,225.169988 72.76375,227.63 C74.2937576,230.090012 75.05875,232.939984 75.05875,236.18 L75.05875,270.74 C75.05875,271.100002 74.9387512,271.399999 74.69875,271.64 C74.4587488,271.880001 74.1587518,272 73.79875,272 L70.01875,272 C69.6587482,272 69.3587512,271.880001 69.11875,271.64 C68.8787488,271.399999 68.75875,271.100002 68.75875,270.74 L68.75875,264.53 C66.8987407,267.230013 64.5137645,269.344992 61.60375,270.875 C58.6937354,272.405008 55.5287671,273.17 52.10875,273.17 C47.4887269,273.17 43.7087647,271.865013 40.76875,269.255 L40.76875,269.255 Z M60.83875,264.53 C63.238762,262.969992 65.1137432,261.005012 66.46375,258.635 C67.8137567,256.264988 68.48875,253.940011 68.48875,251.66 L68.48875,247.97 C67.0487428,248.150001 62.428789,248.779995 54.62875,249.86 L52.10875,250.22 C46.10872,251.120004 43.10875,253.939976 43.10875,258.68 C43.10875,261.140012 44.008741,263.119992 45.80875,264.62 C47.608759,266.120007 49.9487356,266.87 52.82875,266.87 C55.7687647,266.87 58.438738,266.090008 60.83875,264.53 L60.83875,264.53 Z M86.73125,271.64 C86.4912488,271.399999 86.37125,271.100002 86.37125,270.74 L86.37125,266.6 C86.37125,266.239998 86.4912488,265.940001 86.73125,265.7 C86.9712512,265.459999 87.2712482,265.34 87.63125,265.34 L95.10125,265.34 L95.10125,227.45 L87.63125,227.45 C87.2712482,227.45 86.9712512,227.330001 86.73125,227.09 C86.4912488,226.849999 86.37125,226.550002 86.37125,226.19 L86.37125,222.32 C86.37125,221.959998 86.4912488,221.660001 86.73125,221.42 C86.9712512,221.179999 87.2712482,221.06 87.63125,221.06 L98.88125,221.06 C99.7812545,221.06 100.546247,221.374997 101.17625,222.005 C101.806253,222.635003 102.12125,223.399995 102.12125,224.3 L102.12125,228.8 L107.34125,224.75 C109.501261,223.069992 111.256243,221.945003 112.60625,221.375 C113.956257,220.804997 115.381242,220.52 116.88125,220.52 L119.58125,220.52 C120.001252,220.52 120.316249,220.639999 120.52625,220.88 C120.736251,221.120001 120.84125,221.419998 120.84125,221.78 L120.84125,226.19 C120.84125,226.550002 120.721251,226.849999 120.48125,227.09 C120.241249,227.330001 119.941252,227.45 119.58125,227.45 L117.60125,227.45 C116.101242,227.45 114.691257,227.764997 113.37125,228.395 C112.051243,229.025003 110.071263,230.38999 107.43125,232.49 L102.12125,236.72 L102.12125,265.34 L112.56125,265.34 C112.921252,265.34 113.221249,265.459999 113.46125,265.7 C113.701251,265.940001 113.82125,266.239998 113.82125,266.6 L113.82125,270.74 C113.82125,271.100002 113.701251,271.399999 113.46125,271.64 C113.221249,271.880001 112.921252,272 112.56125,272 L87.63125,272 C87.2712482,272 86.9712512,271.880001 86.73125,271.64 L86.73125,271.64 Z M132.06375,269.255 C129.123735,266.644987 127.65375,263.210021 127.65375,258.95 C127.65375,254.98998 128.988737,251.720013 131.65875,249.14 C134.328763,246.559987 138.063726,244.940003 142.86375,244.28 L154.56375,242.66 C156.303759,242.419999 157.563746,241.835005 158.34375,240.905 C159.123754,239.974995 159.51375,238.640009 159.51375,236.9 L159.51375,236.18 C159.51375,233.299986 158.388761,230.975009 156.13875,229.205 C153.888739,227.434991 151.083767,226.55 147.72375,226.55 C145.083737,226.55 142.78876,227.074995 140.83875,228.125 C138.88874,229.175005 137.343756,230.629991 136.20375,232.49 C135.723748,233.270004 135.123754,233.66 134.40375,233.66 C134.043748,233.66 133.653752,233.510001 133.23375,233.21 L130.80375,231.59 C130.263747,231.109998 129.99375,230.600003 129.99375,230.06 C129.99375,229.819999 130.083749,229.520002 130.26375,229.16 C132.003759,226.279986 134.388735,224.015008 137.41875,222.365 C140.448765,220.714992 143.94373,219.89 147.90375,219.89 C151.503768,219.89 154.713736,220.564993 157.53375,221.915 C160.353764,223.265007 162.528742,225.169988 164.05875,227.63 C165.588758,230.090012 166.35375,232.939984 166.35375,236.18 L166.35375,270.74 C166.35375,271.100002 166.233751,271.399999 165.99375,271.64 C165.753749,271.880001 165.453752,272 165.09375,272 L161.31375,272 C160.953748,272 160.653751,271.880001 160.41375,271.64 C160.173749,271.399999 160.05375,271.100002 160.05375,270.74 L160.05375,264.53 C158.193741,267.230013 155.808765,269.344992 152.89875,270.875 C149.988735,272.405008 146.823767,273.17 143.40375,273.17 C138.783727,273.17 135.003765,271.865013 132.06375,269.255 L132.06375,269.255 Z M152.13375,264.53 C154.533762,262.969992 156.408743,261.005012 157.75875,258.635 C159.108757,256.264988 159.78375,253.940011 159.78375,251.66 L159.78375,247.97 C158.343743,248.150001 153.723789,248.779995 145.92375,249.86 L143.40375,250.22 C137.40372,251.120004 134.40375,253.939976 134.40375,258.68 C134.40375,261.140012 135.303741,263.119992 137.10375,264.62 C138.903759,266.120007 141.243736,266.87 144.12375,266.87 C147.063765,266.87 149.733738,266.090008 152.13375,264.53 L152.13375,264.53 Z M193.55125,271.685 C193.221248,271.474999 192.996251,271.190002 192.87625,270.83 L175.95625,223.04 C175.89625,222.919999 175.86625,222.710002 175.86625,222.41 C175.86625,222.049998 176.001249,221.735001 176.27125,221.465 C176.541251,221.194999 176.886248,221.06 177.30625,221.06 L181.44625,221.06 C181.806252,221.06 182.151248,221.164999 182.48125,221.375 C182.811252,221.585001 183.036249,221.869998 183.15625,222.23 L197.37625,263.27 L211.32625,222.23 C211.446251,221.869998 211.671248,221.585001 212.00125,221.375 C212.331252,221.164999 212.676248,221.06 213.03625,221.06 L216.99625,221.06 C217.536253,221.06 217.941249,221.254998 218.21125,221.645 C218.481251,222.035002 218.526251,222.499997 218.34625,223.04 L201.42625,270.83 C201.306249,271.190002 201.081252,271.474999 200.75125,271.685 C200.421248,271.895001 200.076252,272 199.71625,272 L194.58625,272 C194.226248,272 193.881252,271.895001 193.55125,271.685 L193.55125,271.685 Z M235.86875,269.39 C232.868735,267.649991 230.498759,265.265015 228.75875,262.235 C227.018741,259.204985 226.14875,255.920018 226.14875,252.38 L226.14875,239.51 C226.14875,235.969982 227.018741,232.685015 228.75875,229.655 C230.498759,226.624985 232.868735,224.240009 235.86875,222.5 C238.868765,220.759991 242.138732,219.89 245.67875,219.89 C249.218768,219.89 252.488735,220.759991 255.48875,222.5 C258.488765,224.240009 260.858741,226.624985 262.59875,229.655 C264.338759,232.685015 265.20875,235.969982 265.20875,239.51 L265.20875,245.63 C265.20875,246.530005 264.893753,247.294997 264.26375,247.925 C263.633747,248.555003 262.868754,248.87 261.96875,248.87 L233.16875,248.87 L233.16875,252.83 C233.16875,255.110011 233.723744,257.20999 234.83375,259.13 C235.943756,261.05001 237.45874,262.564994 239.37875,263.675 C241.29876,264.785006 243.398739,265.34 245.67875,265.34 L258.72875,265.34 C259.088752,265.34 259.388749,265.459999 259.62875,265.7 C259.868751,265.940001 259.98875,266.239998 259.98875,266.6 L259.98875,270.74 C259.98875,271.100002 259.868751,271.399999 259.62875,271.64 C259.388749,271.880001 259.088752,272 258.72875,272 L245.67875,272 C242.138732,272 238.868765,271.130009 235.86875,269.39 L235.86875,269.39 Z M258.18875,242.39 L258.18875,239.06 C258.18875,236.779989 257.633756,234.68001 256.52375,232.76 C255.413744,230.83999 253.89876,229.325006 251.97875,228.215 C250.05874,227.104994 247.958761,226.55 245.67875,226.55 C243.398739,226.55 241.29876,227.104994 239.37875,228.215 C237.45874,229.325006 235.943756,230.83999 234.83375,232.76 C233.723744,234.68001 233.16875,236.779989 233.16875,239.06 L233.16875,242.39 L258.18875,242.39 Z M281.96625,271.055 C281.336247,270.424997 281.02125,269.660005 281.02125,268.76 L281.02125,210.35 L272.65125,210.35 C272.291248,210.35 271.991251,210.230001 271.75125,209.99 C271.511249,209.749999 271.39125,209.450002 271.39125,209.09 L271.39125,204.95 C271.39125,204.589998 271.511249,204.290001 271.75125,204.05 C271.991251,203.809999 272.291248,203.69 272.65125,203.69 L284.80125,203.69 C285.701254,203.69 286.466247,204.004997 287.09625,204.635 C287.726253,205.265003 288.04125,206.029995 288.04125,206.93 L288.04125,265.34 L297.58125,265.34 C297.941252,265.34 298.241249,265.459999 298.48125,265.7 C298.721251,265.940001 298.84125,266.239998 298.84125,266.6 L298.84125,270.74 C298.84125,271.100002 298.721251,271.399999 298.48125,271.64 C298.241249,271.880001 297.941252,272 297.58125,272 L284.26125,272 C283.361245,272 282.596253,271.685003 281.96625,271.055 L281.96625,271.055 Z" id="laravel" fill="#FFFFFF"></path>
        </g>
    </g>
</svg>

<svg width="299" height="274" viewBox="0 0 299 274" xmlns="http://www.w3.org/2000/svg"><title>Group</title><g fill="none" fill-rule="evenodd"><path d="M175.65 169.302c1.578 2.35 2.543 2.17 3.77 1.627 1.228-.542 64.378-22.519 66.307-23.242 1.93-.724 1.316-1.357.702-2.352-.613-.995-21.664-30.477-22.716-32.196-1.053-1.719-1.579-1.357-3.246-.814l-66.942 17.961s20.546 36.664 22.124 39.016zM251.077 139.28v-34.511c-7.531 2.07-17.057 4.685-20.817 5.717 5.673 7.826 14.542 20.075 20.817 28.793zM230.195 67.982c-1.032.242-23.876 4.499-25.283 4.692-1.407.193-.939 1.016-.375 1.838l20.103 28.441s24.58-6.288 26.08-6.626c.122-.028.241-.057.357-.087v-3.766c-4.467-5.842-16.64-21.747-17.692-23.233-1.266-1.79-2.158-1.5-3.19-1.259z" fill="#F35045"/><path d="M86.46 23.307c4.947-.232 5.398.929 7.572 4.252l54.6 94.126 68.654-16.958c-3.803-5.56-21.072-30.805-22.74-33.214-1.877-2.709.046-3.967 3.095-4.498 3.05-.532 29.317-5.079 31.569-5.417 2.252-.34 4.035-1.161 7.693 3.386 1.872 2.326 8.219 10.475 14.174 18.114V39.07c0-10.762-3.705-19.965-11.116-27.607C232.55 3.821 223.625 0 213.188 0H86.89C76.453 0 67.528 3.821 60.117 11.463c-4.251 4.384-7.276 9.282-9.09 14.692 12.376-1.048 31.971-2.686 35.433-2.848z" fill="#F35045"/><path d="M181.841 181.97c-5.789 1.808-8.385 2.706-12.156-2.72-2.824-4.065-18.098-32.43-25.586-46.415-14.173 3.828-40.111 10.809-47.59 12.662-7.301 1.808-10.419-2.705-11.618-5.487C84.05 138.06 62.648 90.478 49 59.948v109.354c0 10.762 3.706 19.964 11.117 27.606 7.411 7.642 16.336 11.463 26.773 11.463h126.298c10.437 0 19.362-3.821 26.773-11.463 7.41-7.642 11.116-16.844 11.116-27.606v-12.846c-15.503 5.848-65.335 24.295-69.236 25.514z" fill="#F35045"/><path d="M96.687 134.536c2.052-.484 40.505-9.973 41.326-10.155.82-.181 1.348-.665.468-2.236-.879-1.57-51.256-91.235-51.256-91.235-.465-.823-.332-1.097-1.596-1.029-1.127.061-29.631 2.684-36.23 3.253a42.806 42.806 0 0 0-.364 4.339c6.7 14.142 45.15 95.913 45.366 96.58.235.725.234.967 2.286.483z" fill="#F35045"/><path d="M11.321 271.055c-.63-.63-.945-1.395-.945-2.295v-58.41h-8.37c-.36 0-.66-.12-.9-.36s-.36-.54-.36-.9v-4.14c0-.36.12-.66.36-.9s.54-.36.9-.36h12.15c.9 0 1.665.315 2.295.945.63.63.945 1.395.945 2.295v58.41h9.54c.36 0 .66.12.9.36s.36.54.36.9v4.14c0 .36-.12.66-.36.9s-.54.36-.9.36h-13.32c-.9 0-1.665-.315-2.295-.945zm29.448-1.8c-2.94-2.61-4.41-6.045-4.41-10.305 0-3.96 1.335-7.23 4.005-9.81s6.405-4.2 11.205-4.86l11.7-1.62c1.74-.24 3-.825 3.78-1.755.78-.93 1.17-2.265 1.17-4.005v-.72c0-2.88-1.125-5.205-3.375-6.975-2.25-1.77-5.055-2.655-8.415-2.655-2.64 0-4.935.525-6.885 1.575-1.95 1.05-3.495 2.505-4.635 4.365-.48.78-1.08 1.17-1.8 1.17-.36 0-.75-.15-1.17-.45l-2.43-1.62c-.54-.48-.81-.99-.81-1.53 0-.24.09-.54.27-.9 1.74-2.88 4.125-5.145 7.155-6.795 3.03-1.65 6.525-2.475 10.485-2.475 3.6 0 6.81.675 9.63 2.025 2.82 1.35 4.995 3.255 6.525 5.715 1.53 2.46 2.295 5.31 2.295 8.55v34.56c0 .36-.12.66-.36.9s-.54.36-.9.36h-3.78c-.36 0-.66-.12-.9-.36s-.36-.54-.36-.9v-6.21a19.686 19.686 0 0 1-7.155 6.345c-2.91 1.53-6.075 2.295-9.495 2.295-4.62 0-8.4-1.305-11.34-3.915zm20.07-4.725c2.4-1.56 4.275-3.525 5.625-5.895 1.35-2.37 2.025-4.695 2.025-6.975v-3.69c-1.44.18-6.06.81-13.86 1.89l-2.52.36c-6 .9-9 3.72-9 8.46 0 2.46.9 4.44 2.7 5.94 1.8 1.5 4.14 2.25 7.02 2.25 2.94 0 5.61-.78 8.01-2.34zm25.892 7.11c-.24-.24-.36-.54-.36-.9v-4.14c0-.36.12-.66.36-.9s.54-.36.9-.36h7.47v-37.89h-7.47c-.36 0-.66-.12-.9-.36s-.36-.54-.36-.9v-3.87c0-.36.12-.66.36-.9s.54-.36.9-.36h11.25c.9 0 1.665.315 2.295.945.63.63.945 1.395.945 2.295v4.5l5.22-4.05c2.16-1.68 3.915-2.805 5.265-3.375 1.35-.57 2.775-.855 4.275-.855h2.7c.42 0 .735.12.945.36.21.24.315.54.315.9v4.41c0 .36-.12.66-.36.9s-.54.36-.9.36h-1.98c-1.5 0-2.91.315-4.23.945-1.32.63-3.3 1.995-5.94 4.095l-5.31 4.23v28.62h10.44c.36 0 .66.12.9.36s.36.54.36.9v4.14c0 .36-.12.66-.36.9s-.54.36-.9.36h-24.93c-.36 0-.66-.12-.9-.36zm45.333-2.385c-2.94-2.61-4.41-6.045-4.41-10.305 0-3.96 1.335-7.23 4.005-9.81s6.405-4.2 11.205-4.86l11.7-1.62c1.74-.24 3-.825 3.78-1.755.78-.93 1.17-2.265 1.17-4.005v-.72c0-2.88-1.125-5.205-3.375-6.975-2.25-1.77-5.055-2.655-8.415-2.655-2.64 0-4.935.525-6.885 1.575-1.95 1.05-3.495 2.505-4.635 4.365-.48.78-1.08 1.17-1.8 1.17-.36 0-.75-.15-1.17-.45l-2.43-1.62c-.54-.48-.81-.99-.81-1.53 0-.24.09-.54.27-.9 1.74-2.88 4.125-5.145 7.155-6.795 3.03-1.65 6.525-2.475 10.485-2.475 3.6 0 6.81.675 9.63 2.025 2.82 1.35 4.995 3.255 6.525 5.715 1.53 2.46 2.295 5.31 2.295 8.55v34.56c0 .36-.12.66-.36.9s-.54.36-.9.36h-3.78c-.36 0-.66-.12-.9-.36s-.36-.54-.36-.9v-6.21a19.686 19.686 0 0 1-7.155 6.345c-2.91 1.53-6.075 2.295-9.495 2.295-4.62 0-8.4-1.305-11.34-3.915zm20.07-4.725c2.4-1.56 4.275-3.525 5.625-5.895 1.35-2.37 2.025-4.695 2.025-6.975v-3.69c-1.44.18-6.06.81-13.86 1.89l-2.52.36c-6 .9-9 3.72-9 8.46 0 2.46.9 4.44 2.7 5.94 1.8 1.5 4.14 2.25 7.02 2.25 2.94 0 5.61-.78 8.01-2.34zm41.417 7.155a1.583 1.583 0 0 1-.675-.855l-16.92-47.79c-.06-.12-.09-.33-.09-.63 0-.36.135-.675.405-.945.27-.27.615-.405 1.035-.405h4.14a1.9 1.9 0 0 1 1.035.315c.33.21.555.495.675.855l14.22 41.04 13.95-41.04c.12-.36.345-.645.675-.855a1.9 1.9 0 0 1 1.035-.315h3.96c.54 0 .945.195 1.215.585.27.39.315.855.135 1.395l-16.92 47.79c-.12.36-.345.645-.675.855a1.9 1.9 0 0 1-1.035.315h-5.13a1.9 1.9 0 0 1-1.035-.315zm42.318-2.295c-3-1.74-5.37-4.125-7.11-7.155-1.74-3.03-2.61-6.315-2.61-9.855v-12.87c0-3.54.87-6.825 2.61-9.855 1.74-3.03 4.11-5.415 7.11-7.155 3-1.74 6.27-2.61 9.81-2.61 3.54 0 6.81.87 9.81 2.61 3 1.74 5.37 4.125 7.11 7.155 1.74 3.03 2.61 6.315 2.61 9.855v6.12c0 .9-.315 1.665-.945 2.295-.63.63-1.395.945-2.295.945h-28.8v3.96c0 2.28.555 4.38 1.665 6.3a12.237 12.237 0 0 0 4.545 4.545c1.92 1.11 4.02 1.665 6.3 1.665h13.05c.36 0 .66.12.9.36s.36.54.36.9v4.14c0 .36-.12.66-.36.9s-.54.36-.9.36h-13.05c-3.54 0-6.81-.87-9.81-2.61zm22.32-27v-3.33c0-2.28-.555-4.38-1.665-6.3a12.237 12.237 0 0 0-4.545-4.545c-1.92-1.11-4.02-1.665-6.3-1.665-2.28 0-4.38.555-6.3 1.665a12.237 12.237 0 0 0-4.545 4.545c-1.11 1.92-1.665 4.02-1.665 6.3v3.33h25.02zm23.777 28.665c-.63-.63-.945-1.395-.945-2.295v-58.41h-8.37c-.36 0-.66-.12-.9-.36s-.36-.54-.36-.9v-4.14c0-.36.12-.66.36-.9s.54-.36.9-.36h12.15c.9 0 1.665.315 2.295.945.63.63.945 1.395.945 2.295v58.41h9.54c.36 0 .66.12.9.36s.36.54.36.9v4.14c0 .36-.12.66-.36.9s-.54.36-.9.36h-13.32c-.9 0-1.665-.315-2.295-.945z" fill="#FFF"/></g></svg>
